svgs/cod_mobile.svg

<svg width="192" height="192" viewBox="0 0 192 192" fill="none" xmlns="http://www.w3.org/2000/svg">
<path fill-rule="evenodd" clip-rule="evenodd" d="M30.41 29.1925C32.361 27.7356 34.999 27.6022 37.087 28.855L57.087 40.855C58.8942 41.9393 60 43.8924 60 46V96V146C60 148.108 58.8942 150.061 57.087 151.145L37.087 163.145C34.999 164.398 32.361 164.264 30.41 162.807L18.41 153.846C16.8933 152.714 16 150.932 16 149.039V96V42.9611C16 41.0682 16.8933 39.2862 18.41 38.1536L30.41 29.1925ZM34.3648 41.216L28 45.9689V96V146.031L34.3648 150.784L48 142.603V96V49.3971L34.3648 41.216ZM120.956 52.7788C122.837 53.8438 124 55.8383 124 58V114C124 116.108 122.894 118.061 121.087 119.145L99.087 132.345C97.1869 133.485 94.8131 133.485 92.913 132.345L70.913 119.145C69.1058 118.061 68 116.108 68 114V58C68 55.8384 69.1628 53.8438 71.0438 52.7788C72.9249 51.7138 75.2334 51.7429 77.087 52.855L96 64.2028L114.913 52.855C116.767 51.7428 119.075 51.7137 120.956 52.7788ZM112 68.5972L99.087 76.345C97.1869 77.485 94.8131 77.485 92.913 76.345L80 68.5972V110.603L96 120.203L112 110.603V68.5972ZM154.913 28.855C157.001 27.6022 159.639 27.7356 161.59 29.1925L173.59 38.1536C175.107 39.2862 176 41.0682 176 42.9611V96V149.039C176 150.932 175.107 152.714 173.59 153.846L161.59 162.807C159.639 164.264 157.001 164.398 154.913 163.145L134.913 151.145C133.106 150.061 132 148.108 132 146V96V46C132 43.8924 133.106 41.9393 134.913 40.855L154.913 28.855ZM164 45.9689L157.635 41.216L144 49.3971V96V142.603L157.635 150.784L164 146.031V96V45.9689Z" fill="black"/>
</svg>

<svg width="192" height="192" fill="none" xmlns="http://www.w3.org/2000/svg"><path fill-rule="evenodd" clip-rule="evenodd" d="M30.41 29.192a6 6 0 0 1 6.677-.337l20 12A6 6 0 0 1 60 46v100a6 6 0 0 1-2.913 5.145l-20 12a6 6 0 0 1-6.677-.338l-12-8.961a5.998 5.998 0 0 1-2.41-4.807V42.961a6 6 0 0 1 2.41-4.807l12-8.962zm3.955 12.024L28 45.969V146.03l6.365 4.753L48 142.603V49.397l-13.635-8.181zm86.591 11.563A6 6 0 0 1 124 58v56a6 6 0 0 1-2.913 5.145l-22 13.2a6 6 0 0 1-6.174 0l-22-13.2A6 6 0 0 1 68 114V58a6 6 0 0 1 9.087-5.145L96 64.203l18.913-11.348a6 6 0 0 1 6.043-.076zM112 68.597l-12.913 7.748a6 6 0 0 1-6.174 0L80 68.597v42.006l16 9.6 16-9.6V68.597zm42.913-39.742a6 6 0 0 1 6.677.337l12 8.962A6 6 0 0 1 176 42.96V149.04a5.997 5.997 0 0 1-2.41 4.807l-12 8.961a6 6 0 0 1-6.677.338l-20-12A6 6 0 0 1 132 146V46a6 6 0 0 1 2.913-5.145l20-12zM164 45.969l-6.365-4.753L144 49.397v93.206l13.635 8.181 6.365-4.753V45.969z" fill="#000"/></svg>
